X:624
T:Miss Elenora Robertson
R:Reel
C:Robert Mackintosh
B:The Athole Collection
M:C|
L:1/8
K:B_
F|B2 dB AcAF|B2 dB Acfe|dbfd ecAF|GBAc dB~B:|
F|DB,DF EGcB|AFAc fdBF|DB,DF EGcB|AcFe dB~BF|
DB,DF EGcB|AFAc dBdf|gbge dfdB|AcFA BB,B,||

